icons-rebrand/svg/active-speaker-lock-light.svg

<svg width="32" height="32" viewBox="0 0 32 32" fill="none" xmlns="http://www.w3.org/2000/svg">
<path d="M10 13.5H9.5V12C9.5 11.337 9.23661 10.7011 8.76777 10.2323C8.29893 9.76343 7.66304 9.50004 7 9.50004C6.33696 9.50004 5.70107 9.76343 5.23223 10.2323C4.76339 10.7011 4.5 11.337 4.5 12V13.5H4C3.60234 13.5006 3.22111 13.6588 2.93992 13.94C2.65873 14.2212 2.50053 14.6024 2.5 15V19C2.50053 19.3977 2.65873 19.7789 2.93992 20.0601C3.22111 20.3413 3.60234 20.4995 4 20.5H10C10.3977 20.4998 10.7791 20.3417 11.0604 20.0604C11.3416 19.7792 11.4997 19.3978 11.5 19V15C11.4995 14.6024 11.3413 14.2212 11.0601 13.94C10.7789 13.6588 10.3977 13.5006 10 13.5ZM5.5 12C5.5 11.6022 5.65804 11.2207 5.93934 10.9394C6.22064 10.6581 6.60218 10.5 7 10.5C7.39782 10.5 7.77936 10.6581 8.06066 10.9394C8.34196 11.2207 8.5 11.6022 8.5 12V13.5H5.5V12ZM10.5 19C10.4995 19.1325 10.4466 19.2594 10.353 19.353C10.2593 19.4467 10.1324 19.4995 10 19.5H4C3.86747 19.4998 3.74045 19.447 3.64674 19.3533C3.55303 19.2596 3.50026 19.1326 3.5 19V15C3.50026 14.8675 3.55303 14.7405 3.64674 14.6468C3.74045 14.5531 3.86747 14.5003 4 14.5H10C10.1325 14.5003 10.2596 14.5531 10.3533 14.6468C10.447 14.7405 10.4997 14.8675 10.5 15V19ZM17 21.5C16.9017 21.5002 16.8055 21.4714 16.7235 21.4173C16.6414 21.3631 16.5772 21.2859 16.5388 21.1954C16.5004 21.1049 16.4895 21.0051 16.5075 20.9085C16.5255 20.8118 16.5716 20.7226 16.64 20.652C17.2227 20.0491 17.6844 19.3399 18 18.563C18.6654 16.9192 18.6654 15.0809 18 13.437C17.6843 12.6599 17.2226 11.9505 16.64 11.347C16.5941 11.2999 16.5579 11.2441 16.5336 11.183C16.5093 11.1218 16.4973 11.0565 16.4983 10.9906C16.4993 10.9248 16.5132 10.8599 16.5394 10.7995C16.5655 10.7391 16.6034 10.6844 16.6507 10.6387C16.698 10.5929 16.7539 10.557 16.8152 10.5329C16.8764 10.5088 16.9418 10.497 17.0076 10.4983C17.0734 10.4995 17.1383 10.5137 17.1986 10.5401C17.2589 10.5665 17.3134 10.6045 17.359 10.652C18.03 11.3467 18.5619 12.1634 18.926 13.058C19.6903 14.9449 19.6903 17.0552 18.926 18.942C18.5622 19.8365 18.0302 20.6529 17.359 21.347C17.3125 21.3956 17.2566 21.4342 17.1947 21.4605C17.1328 21.4868 17.0662 21.5003 16.999 21.5H17ZM24 28.5C23.9009 28.5002 23.8039 28.4709 23.7214 28.4159C23.639 28.3608 23.5748 28.2825 23.5369 28.1908C23.4991 28.0992 23.4894 27.9984 23.509 27.9012C23.5286 27.804 23.5766 27.7149 23.647 27.645C25.1857 26.1211 26.407 24.3073 27.2406 22.3086C28.0741 20.3098 28.5033 18.1656 28.5033 16C28.5033 13.8344 28.0741 11.6903 27.2406 9.69152C26.407 7.69275 25.1857 5.87898 23.647 4.35504C23.6004 4.30875 23.5633 4.25373 23.538 4.19312C23.5126 4.13251 23.4995 4.0675 23.4992 4.0018C23.4988 3.86912 23.551 3.74169 23.6445 3.64754C23.738 3.55339 23.865 3.50023 23.9977 3.49976C24.1304 3.49929 24.2578 3.55155 24.352 3.64504C25.9844 5.26195 27.2802 7.18631 28.1645 9.30694C29.0488 11.4276 29.5041 13.7024 29.5041 16C29.5041 18.2977 29.0488 20.5725 28.1645 22.6931C27.2802 24.8138 25.9844 26.7381 24.352 28.355C24.2584 28.4479 24.1319 28.5 24 28.5Z" fill="#0F0F0F"/>
<path d="M20.5002 25.5C20.4025 25.5001 20.307 25.4715 20.2254 25.4179C20.1438 25.3642 20.0797 25.2879 20.041 25.1982C20.0023 25.1086 19.9906 25.0096 20.0076 24.9134C20.0245 24.8172 20.0692 24.7281 20.1362 24.657C20.4342 24.34 20.7142 24.007 20.9762 23.661C21.6428 22.7736 22.1877 21.801 22.5962 20.769C23.8007 17.7034 23.8007 14.2956 22.5962 11.23C22.1856 10.1936 21.6373 9.21717 20.9662 8.32702C20.7074 7.98407 20.4303 7.65526 20.1362 7.34202C20.0497 7.24475 20.0045 7.11757 20.0103 6.98753C20.0161 6.85749 20.0724 6.73483 20.1672 6.64562C20.262 6.55642 20.3879 6.5077 20.518 6.50983C20.6482 6.51196 20.7724 6.56477 20.8642 6.65702C21.1822 6.99702 21.4832 7.35302 21.7642 7.72402C22.4897 8.68586 23.0823 9.74101 23.5262 10.861C24.8243 14.1637 24.8243 17.8353 23.5262 21.138C23.0841 22.2528 22.4949 23.3035 21.7742 24.262C21.4912 24.639 21.1862 25 20.8632 25.342C20.8168 25.3919 20.7606 25.4316 20.6981 25.4588C20.6357 25.486 20.5683 25.5 20.5002 25.5Z" fill="#0F0F0F"/>
</svg>

<svg width="32" height="32" viewBox="0 0 32 32" fill="none" xmlns="http://www.w3.org/2000/svg"><path d="M10 13.5h-.5V12a2.5 2.5 0 0 0-5 0v1.5H4A1.502 1.502 0 0 0 2.5 15v4A1.502 1.502 0 0 0 4 20.5h6a1.501 1.501 0 0 0 1.5-1.5v-4a1.502 1.502 0 0 0-1.5-1.5zM5.5 12a1.5 1.5 0 0 1 3 0v1.5h-3V12zm5 7a.502.502 0 0 1-.5.5H4a.501.501 0 0 1-.5-.5v-4a.501.501 0 0 1 .5-.5h6a.501.501 0 0 1 .5.5v4zM17 21.5a.5.5 0 0 1-.36-.848A6.558 6.558 0 0 0 18 18.563a6.831 6.831 0 0 0 0-5.126 6.569 6.569 0 0 0-1.36-2.09.5.5 0 1 1 .719-.695 7.571 7.571 0 0 1 1.567 2.406 7.836 7.836 0 0 1 0 5.884 7.555 7.555 0 0 1-1.567 2.405.496.496 0 0 1-.36.153zM24 28.5a.5.5 0 0 1-.353-.855 16.39 16.39 0 0 0 0-23.29.5.5 0 0 1 .705-.71 17.39 17.39 0 0 1 0 24.71.5.5 0 0 1-.352.145z" fill="#0F0F0F"/><path d="M20.5 25.5a.5.5 0 0 1-.364-.843c.298-.317.578-.65.84-.996a12.435 12.435 0 0 0 1.62-2.892 13.042 13.042 0 0 0 0-9.539 12.422 12.422 0 0 0-1.63-2.903 11.999 11.999 0 0 0-.83-.985.5.5 0 0 1 .728-.685c.318.34.619.696.9 1.067a13.42 13.42 0 0 1 1.762 3.137 14.047 14.047 0 0 1 0 10.277 13.446 13.446 0 0 1-1.752 3.124c-.283.377-.588.738-.911 1.08a.496.496 0 0 1-.363.158z" fill="#0F0F0F"/></svg>
